X:807
T:Rachel Rae
R:Reel
B:The Athole Collection
M:C|
L:1/8
K:D
A,|D2FA d2Ac|d2fd fedc|d2Ad BAGF|E2AE FDD:|
A|defg a2fd|g2bg e2cA|defg a2fd|Agfe fddA|defg fafd|g2bg eecA|
D2Ad BAGF|E2 AD FDD||

